X:110
T:Belle Doette
M:6/8
L:1/8
K:C
V:1
(A//B//c//B// | A2)A/G/ (GA) c | c2d e2e | {de}f2 e//d//c/ (de) e- | e2z z2 (A//B//c//B// | 
A2) A/G/ (GA) c- | c2 c/d/ e2e | {de}f2 e//d//c/ (de) e- | e2z z2 || e- | e2g (ga) (a//g//f//e//d//c//B//) |
(BA) B c2 c/d/ | e2 d/c/ B/A/G G- | G2z z2e- | e2g (ga) (a//g//f//e//d//c//B//) | (BA) (c c2)c/d/ |
e2d/c/ B/A/G G- | G2z z2B | c2e dc B | c2 B//A//B//G// (GA) A- | A2z z2 |]





